themes/asg/static/images/icons/video-title-icon.svg

<svg width="81" height="79" viewBox="0 0 81 79" fill="none" xmlns="http://www.w3.org/2000/svg">
<path d="M20.0251 49.4234L1.23994e-06 29.3983L9.79952 19.5988L39.1981 48.9974L20.0251 49.4234Z" fill="#75FA4C"/>
<path d="M20.0251 9.37345L-1.11506e-05 29.3986L9.79951 39.1981L39.1981 9.79953L20.0251 9.37345Z" fill="#75FA4C"/>
<path d="M60.1004 29.3754L80.1255 49.4005L70.326 59.2L40.9274 29.8015L60.1004 29.3754Z" fill="#75FA4C"/>
<path d="M60.1004 69.4254L80.1255 49.4003L70.326 39.6007L40.9274 68.9993L60.1004 69.4254Z" fill="#75FA4C"/>
</svg>

<svg width="81" height="79" fill="none" xmlns="http://www.w3.org/2000/svg"><path d="M20.025 49.423L0 29.398l9.8-9.8 29.398 29.4-19.173.425z" fill="#75FA4C"/><path d="M20.025 9.373L0 29.4l9.8 9.8L39.198 9.8l-19.173-.426zM60.1 29.375l20.026 20.026-9.8 9.799-29.399-29.399 19.173-.426z" fill="#75FA4C"/><path d="M60.1 69.425L80.126 49.4l-9.8-9.8L40.927 69l19.173.425z" fill="#75FA4C"/></svg>
